X: 589
T: Doğduğum Günden Beri
C: Muallim İsmail Hakkı Bey
O: Turkey
F: http://compmusic.upf.edu/node/140
N: suzinak-zirgule--sarki--devrihindi--dogdugum_gunden--muallim_ismail_hakki_bey
N: makam= suzinak-zirgule
N: form= sarki
N: usul= devrihindi = 7/4
M: 7/4
L: 1/16
K: C _1/4B _7/8e _7/8A ^f
Q: 1/4=120
%%MIDI tuningsystem comma53
d4 c2 d4 g4  | f3e d2 gf ed c4  | d4 c2 d4 e3d  | \
w:  Doğ du ğum  gün  |  den  *  be ri    |  Doğ du ğum  gün  | 
fg =a2 gf fe ed .d4  | 
w:  den  *  *  be *  ri    | 
d4 g2 g3f ed c2  | d3c fe dc cB B3A  | \
w:  Aş kı na  *  yak  |  tım  *  te *  ni    | 
G4 e2 d3c c/B/c/d/ cB  | 
w:  Aş kı na  *  yak  | 
B4 c2 BA AG .G4  | g4 g2 =ag gf g4  | \
w:  tım  te ni    |  Ken di ne  *  *  *  râm   | 
=a4 g2 _b4 ag fe  | 
w:  ey le din    | 
d4 c2 d4 e3d  | fg =a2 gf fe ed d4  | \
w:  Ken di ne  râm   |  ey *  *  le *  din    | 
d4 g2 g3f ed c2  | 
w:  En  ni hâ *  yet   | 
d3c fe dc cB B3A  | G4 e2 d3c c/B/c/d/ cB  | \
w:  sen  *  be *  ni    |  Rûh_ u  câ *  nım   | 
B4 c2 BA AG G4  | 
w:  mu sı ki    | 
G2 c2 c2 cB cd cB c2  | B2 d2 d2 d^c d_e dc d2  | \
w:  ARANAĞME  |   | 
d2 g2 f2 gf g=a fe d2  | 
w:   | 
=a2 g2 f2 fe ed d4  | c2 e2 e2 ed ef ed e2  | \
w:   |   | 
de f2 ed dc cB Bc BA  | 
w:   | 
G2 d2 c2 de dc BA GA  | Bc d2 cB BA AG G4  | 
w:   |   | 
G2 c2 c2 cB cd cB c2  | B2 d2 d2 d^c d_e dc d2  | \
w:  ARANAĞME  |   | 
d2 g2 f2 gf g=a fe d2  | 
w:   | 
=a2 g2 f2 fe ed d4  | c2 e2 e2 ed ef ed e2  | \
w:   |   | 
de f2 ed dc cB Bc BA  | 
w:   | 
G2 d2 c2 de dc BA GA  | Bc d2 cB BA AG G4  | 
w:   |   | 
|


